!!!COM: Palestrina, Giovanni Perluigi da
!!!OPR: Missa Sanctorum meritis
!!!OTL: Gloria
**kern	**kern	**kern	**kern
*Ibass	*Itenor	*Icalto	*Icant
!Bassus	!Tenor	!Altus	!Cantus
*clefF4	*clefGv2	*clefG2	*clefG2
*k[]	*k[]	*k[]	*k[]
*E:phr	*E:phr	*E:phr	*E:phr
*M4/2	*M4/2	*M4/2	*M4/2
=1	=1	=1	=1
0r	0r	0r	1.d
.	.	.	2e
=2	=2	=2	=2
0r	0r	1r	2f
.	.	.	2g
.	.	[1A	2a
.	.	.	2a
=3	=3	=3	=3
0r	0r	2A]	2cc
.	.	2B	2b
.	.	2c	1a
.	.	2d	.
=4	=4	=4	=4
0r	1r	1e	2.g
.	.	.	4a
.	[1D	1d	4b
.	.	.	4cc
.	.	.	[2dd
=5	=5	=5	=5
0r	2D]	2f	2dd]
.	2E	2e	1cc
.	2F	1d	.
.	2G	.	2b
=6	=6	=6	=6
1.AA	2A	2.c	2.cc
.	2A	.	.
.	.	4d	4b
.	2c	4e	2a
.	.	4f	.
2BB	2B	[2g	2d
=7	=7	=7	=7
2C	1A	2g]	2e
2D	.	2f	2d
1E	2.G	4e	2r
.	.	4d	.
.	.	4B	[2g
.	4A	4c	.
=8	=8	=8	=8
1D	4B	2.d	2g]
.	4c	.	.
.	2.d	.	2f
.	.	8c	.
.	.	8B	.
2F	.	2A	2a
.	4c	.	.
2E	[2c	2c	2g
=9	=9	=9	=9
1D	2c]	1d	1f
.	2B	.	.
1C	[1c	1G	2.e
.	.	.	4f
=10	=10	=10	=10
2E	2c]	0r	2g
2F	2c	.	1a
2D	1B	.	.
2E	.	.	2g#
=11	=11	=11	=11
2AA	2A	1e	1a
2AA	2c	.	.
2AA	2c	2e	1r
2E	2G	2B	.
=12	=12	=12	=12
2.AA	2.A	2.c	2r
.	.	.	2cc
4BB	8G	8B	.
.	8F	8A	.
1C	1E	2G	2cc
.	.	2c	2g
=13	=13	=13	=13
1r	2.F	2A	2.a
.	.	2d	.
.	4G	.	8g
.	.	.	8f
2r	2A	1c	1e
[2c	[2e	.	.
=14	=14	=14	=14
2c]	2e]	0r	1g
2G	2B	.	.
2.A	2.c	.	2e
.	.	.	[2e
4A	4c	.	.
=15	=15	=15	=15
2.E	2G	2r	4e]
.	.	.	4e
.	1c	1g	2e
4F	.	.	.
1G	.	.	1d
.	2B	2d	.
=16	=16	=16	=16
1C	2.c	2.e	2r
.	.	.	1g
.	8B	4e	.
.	8A	.	.
1r	1G	1B	.
.	.	.	2d
=17	=17	=17	=17
2r	2r	2.c	2.e
1c	1e	.	.
.	.	4d	4f
.	.	4e	4g
.	.	4f	4a
2G	2B	2g	[2b
=18	=18	=18	=18
2A	2c	2.e	4b]
.	.	.	4a
2A	2c	.	1a
.	.	4e	.
1E	1B	2e	.
.	.	2e	2g#
=19	=19	=19	=19
2.F	2r	2c	2a
.	2A	2f	2a
4G	.	.	.
1A	2D	2f	2a
.	2A	2c	2e
=20	=20	=20	=20
0r	2.D	2d	2f
.	.	2d	2f
.	4E	.	.
.	2F	2.A	2.c
.	2F	.	.
.	.	4B	4d
=21	=21	=21	=21
1c	2C	4c	4e
.	.	4d	4f
.	2c	4e	2.g
.	.	4f	.
2c	2e	1g	.
.	.	.	4a
2G	2d	.	[2b
=22	=22	=22	=22
2A	2c	0e	4b]
.	.	.	4a
2A	4B	.	1a
.	4A	.	.
1E	2B	.	.
.	2B	.	2g#
=23	=23	=23	=23
1AA	1A	2r	0a
.	.	1e	.
1A	1c	.	.
.	.	2e	.
=24	=24	=24	=24
2A	2c	2f	0r
2B	2d	2.d	.
2.G	2.B	.	.
.	.	4c	.
.	.	2d	.
4F	4A	.	.
=25	=25	=25	=25
2G	2B	1.e	1r
2.A	2.c	.	.
.	.	.	1a
4G	4B	.	.
4F	4A	4d	.
4E	4G	4c	.
=26	=26	=26	=26
2F	2A	1d	2a
2G	1G	.	2b
1C	.	[1e	2.g
.	[2c	.	.
.	.	.	4f
=27	=27	=27	=27
0r	4c]	1e]	2g
.	4B	.	.
.	4A	.	1a
.	4G	.	.
.	2F	2r	.
.	2C	[2e	2g
=28	=28	=28	=28
2r	1D	2e]	1f
1A	.	2d	.
.	1E	2c	1e
2G	.	2B	.
=29	=29	=29	=29
2F	0r	2.c	0r
2E	.	.	.
.	.	4B	.
2.F	.	2A	.
.	.	[2d	.
4E	.	.	.
=30	=30	=30	=30
2D	1r	4d]	0r
.	.	4c	.
2.G	.	4B	.
.	.	4A	.
.	2r	2B	.
4F	.	.	.
4E	[2e	[2c	.
4D	.	.	.
=31	=31	=31	=31
2C	2e]	2c]	2r
2F	2d	2A	1a
1E	2c	1e	.
.	2B	.	2g
=32	=32	=32	=32
2.A	2.c	0r	2f
.	.	.	2e
4G	4B	.	.
2F	2A	.	2.f
2D	[2d	.	.
.	.	.	4e
=33	=33	=33	=33
2.G	4d]	0r	2d
.	4c	.	.
.	4B	.	2.g
4F	4A	.	.
4E	2B	.	.
4D	.	.	4f
4C	[2c	.	4e
4BB	.	.	4d
=34	=34	=34	=34
1AA	4c]	1r	4e
.	4B	.	4d
.	1A	.	2c
1E	.	2r	1B
.	2G	[2e	.
=35	=35	=35	=35
0AA	2.c	4e]	2r
.	.	4e	.
.	.	2e	2.e
.	4B	.	.
.	1A	2.c	.
.	.	.	4e
.	.	.	2e
.	.	4d	.
=36	=36	=36	=36
0r	1r	2e	2g
.	.	2c	2a
.	2r	2d	2b
.	[2A	2e	2cc
=37	=37	=37	=37
1r	4A]	2f	1a
.	4A	.	.
.	2A	4e	.
.	.	4d	.
2r	1c	2.e	2.g
[2E	.	.	.
.	.	4f	4a
=38	=38	=38	=38
4E]	2B	1.g	2b
4E	.	.	.
2E	1e	.	2cc
2G	.	.	2b
2A	2c	[2f	[2a
=39	=39	=39	=39
2B	2d	2f]	2a]
2c	1e	4e	1g
.	.	4d	.
1A	.	1c	.
.	4d	.	2f#
.	4c	.	.
=40	=40	=40	=40
1G	1B	1d	[0g
2r	2r	2.c	.
[2c	[2e	.	.
.	.	4d	.
=41	=41	=41	=41
2c]	2e]	4e	1g]
.	.	4f	.
2B	2d	2g	.
1A	1c	2f	1r
.	.	[2e	.
=42	=42	=42	=42
2G	2B	4e]	1r
.	.	4d	.
2A	2c	2f	.
2G	2B	2e	2r
2F	2A	2d	[2a
=43	=43	=43	=43
1E	1B	1e	2a]
.	.	.	2g
4D	2r	1A	1f
4E	.	.	.
4F	[2d	.	.
4G	.	.	.
=44	=44	=44	=44
1A	4d]	1r	2e
.	4c	.	.
.	2c	.	2f
2G	2B	2r	2e
2F	2A	[2A	2d
=45	=45	=45	=45
1E	1B	2A]	1e
.	.	2G	.
1AA	1A	1c	2r
.	.	.	[2a
=46	=46	=46	=46
0r	0r	2d	2a]
.	.	2e	2g
.	.	4A	1cc
.	.	4B	.
.	.	4c	.
.	.	4d	.
=47	=47	=47	=47
1r	0r	4e	2b
.	.	4d	.
.	.	2f	2a
2r	.	2e	4cc
.	.	.	4b
[2D	.	[2f	4a
.	.	.	4g
=48	=48	=48	=48
2D]	0r	2f]	2f
2C	.	4e	2g
.	.	4d	.
1F	.	4c	2a
.	.	4A	.
.	.	[2d	2f
=49	=49	=49	=49
2G	0r	2d]	1e
2A	.	2c#	.
4D	.	1d	1f
4E	.	.	.
4F	.	.	.
4G	.	.	.
=50	=50	=50	=50
4A	2r	2.c	[0e
4B	.	.	.
1c	1A	.	.
.	.	4B	.
.	.	2A	.
2B	2G	2E	.
=51	=51	=51	=51
1A	1c	0r	0e]
2G	2B	.	.
[2A	2A	.	.
=52	=52	=52	=52
4A]	2c	2r	1r
4E	.	.	.
2G	2B	1e	.
1F	2A	.	[1a
.	2A	2d	.
=53	=53	=53	=53
1E	2e	2c	2a]
.	2.e	2B	2g
2r	.	4A	[1cc
.	4d	4B	.
[2A	4c	4c	.
.	4B	4d	.
=54	=54	=54	=54
2A]	2A	0e	2cc]
2G	2E	.	2b
[1c	4A	.	1a
.	4B	.	.
.	4c	.	.
.	4d	.	.
=55	=55	=55	=55
2c]	2e	1r	1g
2B	1d	.	.
2.A	.	2r	1a
.	[2c	[2e	.
4G	.	.	.
=56	=56	=56	=56
1F	2c]	2e]	2r
.	4B	2d	1a
.	4A	.	.
1E	1B	1e	.
.	.	.	2g#
=57	=57	=57	=57
0r	2r	1f	2a
.	1A	.	1cc
.	.	2.e	.
.	2G#	.	2b
.	.	4d	.
=58	=58	=58	=58
0r	2A	4c	2a
.	.	4d	.
.	1c	4e	4g
.	.	4f	4f
.	.	2g	2e
.	2B	2G	2d
=59	=59	=59	=59
0r	2A	2c	2.e
.	4G	2.B	.
.	4F	.	4f
.	2E	.	2g
.	.	4c	.
.	2F	2A	[2a
=60	=60	=60	=60
1r	2.E	2B	2a]
.	.	1e	2g
.	4D	.	.
2r	2C	.	2.a
[2A	2F	2d	.
.	.	.	4b
=61	=61	=61	=61
2A]	1E	1e	2cc
2G	.	.	2b
2A	1F	2c	2r
[2c	.	2A	[2a
=62	=62	=62	=62
2c]	1E	[0e	2a]
2B	.	.	2g
2.A	2r	.	2a
.	[2A	.	[2cc
8G	.	.	.
8F	.	.	.
=63	=63	=63	=63
1E	2A]	1e]	2cc]
.	2G	.	2b
1AA	2A	2r	2.a
.	[2c	[2e	.
.	.	.	8g
.	.	.	8f
=64	=64	=64	=64
0r	2c]	2e]	2e
.	2B	2d	2g
.	2A	2e	2a
.	4G	[2g	2b
.	4F	.	.
=65	=65	=65	=65
0r	2E	2g]	2cc
.	2D	2f	1dd
.	1A	1e	.
.	.	.	2cc#
=66	=66	=66	=66
2r	1D	1.f	2.dd
1D	.	.	.
.	.	.	8cc
.	.	.	8b
.	1r	.	[1a
2C#	.	2e	.
=67	=67	=67	=67
2D	2r	2f	1a]
1F	1A	1d	.
.	.	.	1r
2E	2G	2c#	.
=68	=68	=68	=68
1D	1A	2d	2r
.	.	1f	2a
1C	2.c	.	2a
.	.	2e	2g
.	4B	.	.
=69	=69	=69	=69
1.D	1A	2d	1f
.	.	4c	.
.	.	4B	.
.	1d	1A	2f
4C	.	.	4e
4BB	.	.	4d
=70	=70	=70	=70
0AA	0c#	0A	0e
=71	=71	=71	=71
0r	0r	1f	1r
.	.	1f	1cc
=72	=72	=72	=72
0r	0r	2c	1cc
.	.	2e	.
.	.	2e	2g
.	.	2d	2a
=73	=73	=73	=73
0r	1r	1e	2a
.	.	.	2g
.	1c	2.A	1a
.	.	4B	.
=74	=74	=74	=74
0r	1c	4c	4e
.	.	4d	4f
.	.	4e	4g
.	.	4c	4a
.	2G	4d	2b
.	.	4e	.
.	2A	2f	2a
=75	=75	=75	=75
0r	2A	2.e	2cc
.	2G	.	2.b
.	.	4d	.
.	1A	2c	.
.	.	.	4a
.	.	4B	[2a
.	.	4A	.
=76	=76	=76	=76
1r	1E	1B	2a]
.	.	.	2g#
1F	2r	2A	2a
.	2A	2f	2cc
=77	=77	=77	=77
1F	4A	1f	4cc
.	4G	.	4b
.	4A	.	4a
.	4B	.	4g
2C	4c	2e	4a
.	4B	.	4g
2D	4A	2d	4f
.	4G	.	4e
=78	=78	=78	=78
2D	2A	2f	2d
2C#	2A	2e	2e
1D	1A	1d	1f
=79	=79	=79	=79
1AA	2A	2c#	1e
.	1c#	1e	.
1A	.	.	2r
.	2c#	2e	[2a
=80	=80	=80	=80
1D	2.d	1f	2a]
.	.	.	2a
.	4c	.	.
2G	4B	2.d	1b
.	4A	.	.
2G	2G	.	.
.	.	4c	.
=81	=81	=81	=81
4G	2B	2d	2.g
4F	.	.	.
4E	2.c	2.e	.
4D	.	.	4f
2.C	.	.	2g
.	4d	4d	.
.	[2e	2c	[2a
4D	.	.	.
=82	=82	=82	=82
1E	4e]	1B	4a]
.	4d	.	4g#
.	2e	.	2g#
1A	2.c	1A	2a
.	.	.	2cc
.	4B	.	.
=83	=83	=83	=83
2r	1A	2r	1cc
2c	.	2e	.
1c	1r	1e	2g
.	.	.	2g
=84	=84	=84	=84
2G	0r	2B	2g
2A	.	2c	2f
2A	.	2c	1e
2G#	.	2B	.
=85	=85	=85	=85
0A	2r	4c	[0e
.	.	4B	.
.	2c	4A	.
.	.	4B	.
.	1c	4c	.
.	.	4d	.
.	.	[2e	.
=86	=86	=86	=86
0E	2G	4e]	0e]
.	.	4d	.
.	2A	4c	.
.	.	8B	.
.	.	8A	.
.	2A	1B	.
.	2G#	.	.
=87	=87	=87	=87
1r	1A	1c	2r
.	.	.	1a
2r	1E	1B	.
[2E	.	.	2g
=88	=88	=88	=88
2E]	2r	1.e	0g
2C	1c	.	.
4C	.	.	.
4D	.	.	.
4E	2B	2e	.
4F	.	.	.
=89	=89	=89	=89
1G	1B	1d	2r
.	.	.	1g
[1C	2r	[1e	.
.	[2c	.	2g
=90	=90	=90	=90
2C]	2c]	2e]	2g
2C	2c	2e	2g
2.F	2c	2f	2a
.	2c	2f	[2cc
4F	.	.	.
=91	=91	=91	=91
2F	1.d	2f	2cc]
2G	.	2d	2.b
1A	.	2f	.
.	.	.	4a
.	2c	4e	[2a
.	.	4d	.
=92	=92	=92	=92
0E	0B	1e	2a]
.	.	.	4g#
.	.	.	4f#
.	.	1e	1g#
=93	=93	=93	=93
1.F	2.A	2r	1a
.	.	2c	.
.	4G	.	.
.	4A	2d	2r
.	4B	.	.
2E	4c	2e	2g
.	4B	.	.
=94	=94	=94	=94
1D	1d	1f	2a
.	.	.	2b
1C	[1G	2.e	1cc
.	.	4f	.
=95	=95	=95	=95
0r	1G]	2g	2.b
.	.	2.d	.
.	.	.	4cc
.	1r	.	2dd
.	.	4e	.
.	.	4f	4a
.	.	4d	4b
=96	=96	=96	=96
0r	1r	2e	4cc
.	.	.	4b
.	.	2.f	4a
.	.	.	4g
.	2r	.	4a
.	.	4e	4g
.	2G	[2e	4g
.	.	.	8f
.	.	.	8e
=97	=97	=97	=97
1r	2A	2e]	1f
.	2B	2d	.
2r	1c	1e	1e
2C	.	.	.
=98	=98	=98	=98
2D	2.B	0r	0r
2E	.	.	.
.	4c	.	.
1F	2d	.	.
.	4A	.	.
.	4B	.	.
=99	=99	=99	=99
2.E	4c	0r	0r
.	4B	.	.
.	4G	.	.
4F	4A	.	.
2G	4B	.	.
.	4c	.	.
4D	[2d	.	.
4E	.	.	.
=100	=100	=100	=100
4F	2d]	1r	0r
4G	.	.	.
1A	2c	.	.
.	1B	2r	.
2G#	.	[2e	.
=101	=101	=101	=101
1A	2A	2e]	1cc
.	1e	2A	.
[1A	.	2.c	1a
.	2A	.	.
.	.	4d	.
=102	=102	=102	=102
2A]	2c	2e	1.a
2D	2.d	2.f	.
2F	.	.	.
.	4c	4e	.
2A	[2c	2c	2f
=103	=103	=103	=103
1G	2c]	1d	1g
.	2B	.	.
2.C	1c	1e	2g
.	.	.	[2a
4D	.	.	.
=104	=104	=104	=104
1E	1B	[0e	2a]
.	.	.	2g#
1AA	2r	.	2a
.	[2A	.	2cc
=105	=105	=105	=105
0r	2A]	1e]	2cc
.	2G#	.	2b
.	2A	2r	1a
.	2c	[2e	.
=106	=106	=106	=106
1r	2c	2e]	1g
.	2B	2d	.
2r	1A	2e	1a
[2D	.	2f	.
=107	=107	=107	=107
2D]	0A	2f	2d
2C#	.	2e	2e
2D	.	1d	4f
.	.	.	4g
2F	.	.	4a
.	.	.	4b-
=108	=108	=108	=108
2F	1r	1c	2a
2E	.	.	2g
1D	2r	2.d	1f
.	[2A	.	.
.	.	4c	.
=109	=109	=109	=109
1E	2A]	1B	1e
.	2G	.	.
1AA	2A	1e	2r
.	[2c	.	[2a
=110	=110	=110	=110
0r	2c]	1d	2a]
.	2B	.	2g
.	1A	1e	2a
.	.	.	[2cc
=111	=111	=111	=111
0r	1.d	1.f	2cc]
.	.	.	2b
.	.	.	[1a
.	2c	2e	.
=112	=112	=112	=112
1.E	1B	2.e	2a]
.	.	.	4g
.	.	4d	4f
.	1r	4B	2g
.	.	4c	.
2D	.	2d	2f
=113	=113	=113	=113
2E	1r	2c	2e
1G	.	4B	4d
.	.	4A	4c
.	2r	2B	1d
2F	[2A	2A	.
=114	=114	=114	=114
2.E	2A]	1B	1e
.	2G	.	.
4D	.	.	.
4C	2A	2c	2r
4BB	.	.	.
2AA	2c	2e	[2a
=115	=115	=115	=115
1E	2c	1.e	2a]
.	2B	.	2g
2r	1A	.	2a
[2A	.	2e	2cc
=116	=116	=116	=116
2A]	2r	1e	2cc
2G	2e	.	2b
2A	2.e	1c	2a
2c	.	.	[2ee
.	4d	.	.
=117	=117	=117	=117
2c	2c	2g	2ee]
2B	2d	2g	1dd
1A	1e	1a	.
.	.	.	2cc#
=118	=118	=118	=118
1D	1.d	1f	2.dd
.	.	.	4cc
1D	.	1f	2b
.	2c	.	2a
=119	=119	=119	=119
0E	2B	0e	2g#
.	2A	.	1a
.	1B	.	.
.	.	.	2g#
=120	=120	=120	=120
0AA	2A	2c	0a
.	2c	2e	.
.	1c	1e	.
=121	=121	=121	=121
0r	2G	2B	2r
.	1A	4c	2cc
.	.	4d	.
.	.	4e	1cc
.	.	4f	.
.	2A	[2e	.
=122	=122	=122	=122
2r	2E	4e]	2g
.	.	4d	.
2F	2A	4c	1a
.	.	4B	.
1F	[1c	2A	.
.	.	2A	2a
=123	=123	=123	=123
2C	2c]	2G	2e
1D	2A	1d	1f
.	2.A	.	.
2D	.	2d	2f
.	4A	.	.
=124	=124	=124	=124
1AA	1.A	2.c	2e
.	.	.	2a
.	.	4d	.
2r	.	1e	2.cc
2A	2c	.	.
.	.	.	4cc
=125	=125	=125	=125
2.c	2.e	2r	2g
.	.	2e	1cc
4c	4e	.	.
2G	1d	2.g	.
[2G	.	.	2b
.	.	4g	.
=126	=126	=126	=126
2G]	0r	2d	4b
.	.	.	4a
2E	.	4e	4g
.	.	4d	4f
[1A	.	4c	2e
.	.	4B	.
.	.	[2c	[2f
=127	=127	=127	=127
2A]	1r	2c]	4f]
.	.	.	4e
2G	.	2B	1e
1F	2r	1A	.
.	2A	.	2d
=128	=128	=128	=128
1C	2.c	2G	1e
.	.	1c	.
.	4c	.	.
1r	2G	.	1d
.	[2G	2B	.
=129	=129	=129	=129
0r	2G]	1e	2.g
.	2E	.	.
.	.	.	4f
.	[1A	2c	4e
.	.	.	4d
.	.	4A	4c
.	.	4B	4d
=130	=130	=130	=130
0r	2A]	4c	4e
.	.	4A	4f
.	2G	4B	4g
.	.	4c	4e
.	1F	4d	4f
.	.	4c	4g
.	.	4c	[2a
.	.	8B	.
.	.	8A	.
=131	=131	=131	=131
2r	1E	1B	2a]
2E	.	.	2g#
2F	1r	2A	2a
2D	.	2d	2a
=132	=132	=132	=132
1A	2r	2c	2.cc
.	2A	2f	.
.	.	.	4cc
1r	2.c	2e	2g
.	.	[2e	[2g
.	4c	.	.
=133	=133	=133	=133
0r	2G	2e]	2g]
.	2.A	2c	2e
.	.	[1f	[1a
.	4G	.	.
.	4F	.	.
.	4E	.	.
=134	=134	=134	=134
0r	2D	2f]	2a]
.	2E	2e	2g
.	2F	1d	1f
.	2D	.	.
=135	=135	=135	=135
2r	4A	1c	2e
.	4B	.	.
2A	4c	.	2a
.	4d	.	.
2.c	2e	2r	2g
.	[2c	2e	2g
4c	.	.	.
=136	=136	=136	=136
2G	2c]	2.d	0g
1G	4B	.	.
.	4A	4d	.
.	1B	2d	.
2E	.	2g	.
=137	=137	=137	=137
1.A	1.c	2e	2r
.	.	2.f	2cc
.	.	.	2a
.	.	4e	.
2G	2B	[2e	[2b
=138	=138	=138	=138
1F	2c	2e]	4b]
.	.	.	4a
.	2A	2d	1a
1E	2.B	[1e	.
.	.	.	2g#
.	8A	.	.
.	8B	.	.
=139	=139	=139	=139
0AA	0c	0e]	0a
=140	=140	=140	=140
0E	0B	0e	0g#
==	==	==	==
*-	*-	*-	*-
!!!CDT: 1525/^1526/-1594/2/2
!!!OCY: Italia
!!!AGN: Mass (Paraphrase)
!!!AST: renaissance, vocal
!!!ASW: Hymn
!!!PWK: Masses, Book 7
!!!RNB: Cadence finals: A,C
!!!YOR: Le Opere Complete, v. 23, p. 30
!!!YOO: Rome, Italy: Fratelli Scalera
!!!END: 1992//
!!!EED: John Miller
!!!YEC: Copyright 2000, John Miller
!!!YEN: United States of America
!!!YEM: Rights to all derivative electronic formats reserved.
!!!YEM: Refer to licensing agreement for further details.
!!!YEM: This file must be accompanied by the licensing agreement.
!!!YEM: A copy of the licensing agreement may be found at http://www.music-cog.ohio-state.edu/HumdrumDatabases/Palestrina/license.txt
!!!EMD: converted to Humdrum by Bret Aarden
